X: 8402
T: Cow That Ate The Blanket, The
R: jig
M: 6/8
K: Gmajor
|:A|B2A BGD|GAG GBd|e/f/ge dBG|ABA ABc|
B2A BGD|GAG GBd|ege dBA|1 AGF G2:|2 AGF GBd||
|:g3 efg|fag fed|gfg edB|BAG ABc|
B2A BGD|GAG GBd|ege dBA|1 AGF GBd:|2 AGF G2||

